X:1065
T:A Trip to York.
M:6/8
L:1/8
Q:3/8=120
I: :: ::
N:last bar printed |G3- G2:|
Z:Jack Campin * www.campin.me.uk * 2009
K:G
G>AG GBd  |g2g  gdB|c>de dcB|A2A A2z |
G>AG GBd  |g>ag gdB|c>BA dec|B2G G2z:|
g>ab b>c'b|aba  afd|gag  fgf|efe dBG |
G>AG GBd  |ggg  f2e|dcB  AGF|G3- G3 :|
<end>
<start>
